images/class_icons/hatchet.svg

<svg height="400" viewBox="0 0 400 400" width="400" xmlns="http://www.w3.org/2000/svg"><path d="m177.664 7.248c-7.345 9.098-7.62 8.107 4.407 15.895 22.856 14.799 47.626 38.654 58.899 56.723.845 1.353 2.235 3.568 3.089 4.921.855 1.354-4.682-3.434-12.304-10.639-26.68-25.223-48.846-40.366-65.511-44.757-5.8-1.528-3.713-3.719-51.129 53.658l-23.891 28.911 31.267 32.387c17.198 17.813 36.245 37.323 42.328 43.356l11.061 10.97 9.823-6.849c50.085-34.921 80.211-50.397 98.167-50.431 3.27-.006 3.324-.061 2.814-2.914-8.997-50.325-48.388-107.144-92.495-133.418-10.581-6.304-9.56-6.439-16.525 2.187m-98.063 113.391c-9.097 5.769-17.076 18.141-20.541 31.853-3.117 12.332-5.038 9.974 28.188 34.589 11.289 8.363 45.064 41.686 123.75 122.091 88.934 90.878 88.883 90.828 92.85 90.828 13.935 0 36.176-36.179 39.47-64.206.998-8.491-3.41-9.621-29.224-7.489-22.041 1.82-15.39 7.072-102.38-80.848-40.895-41.332-86.44-87.351-101.211-102.266l-26.857-27.117z" fill-rule="evenodd"/></svg>

<svg id="svg" xmlns="http://www.w3.org/2000/svg" xmlns:xlink="http://www.w3.org/1999/xlink" width="400" height="400" viewBox="0, 0, 400,400"><g id="svgg"><path id="path0" d="M177.664 7.248 C 170.319 16.346,170.044 15.355,182.071 23.143 C 204.927 37.942,229.697 61.797,240.970 79.866 C 241.815 81.219,243.205 83.434,244.059 84.787 C 244.914 86.141,239.377 81.353,231.755 74.148 C 205.075 48.925,182.909 33.782,166.244 29.391 C 160.444 27.863,162.531 25.672,115.115 83.049 L 91.224 111.960 122.491 144.347 C 139.689 162.160,158.736 181.670,164.819 187.703 L 175.880 198.673 185.703 191.824 C 235.788 156.903,265.914 141.427,283.870 141.393 C 287.140 141.387,287.194 141.332,286.684 138.479 C 277.687 88.154,238.296 31.335,194.189 5.061 C 183.608 -1.243,184.629 -1.378,177.664 7.248 M79.601 120.639 C 70.504 126.408,62.525 138.780,59.060 152.492 C 55.943 164.824,54.022 162.466,87.248 187.081 C 98.537 195.444,132.312 228.767,210.998 309.172 C 299.932 400.050,299.881 400.000,303.848 400.000 C 317.783 400.000,340.024 363.821,343.318 335.794 C 344.316 327.303,339.908 326.173,314.094 328.305 C 292.053 330.125,298.704 335.377,211.714 247.457 C 170.819 206.125,125.274 160.106,110.503 145.191 L 83.646 118.074 79.601 120.639 " stroke="none" fill="#000000" fill-rule="evenodd"></path></g></svg>
